polaris-icons/icons/new-icons/AnalyticsCohortMinor.svg

<svg width="20" height="20" viewBox="0 0 20 20" fill="none" xmlns="http://www.w3.org/2000/svg">
<path fill-rule="evenodd" clip-rule="evenodd" d="M4.5 3.25C3.80964 3.25 3.25 3.80964 3.25 4.5V15.5C3.25 16.1904 3.80964 16.75 4.5 16.75H7.5C8.19036 16.75 8.75 16.1904 8.75 15.5V12.75H11.5C12.1904 12.75 12.75 12.1904 12.75 11.5V8.75H15.5C16.1904 8.75 16.75 8.19036 16.75 7.5V4.5C16.75 3.80964 16.1904 3.25 15.5 3.25H4.5ZM8.75 11.25H11.25V8.75H8.75V11.25ZM4.75 12.75V15.25H7.25V12.75H4.75ZM4.75 11.25H7.25V8.75H4.75V11.25ZM11.25 7.25H8.75V4.75H11.25V7.25ZM4.75 7.25H7.25V4.75H4.75V7.25ZM15.25 7.25H12.75V4.75H15.25V7.25Z" fill="#4A4A4A"/>
</svg>

<svg viewBox="0 0 20 20" xmlns="http://www.w3.org/2000/svg"><path fill-rule="evenodd" d="M4.5 3.25c-.69 0-1.25.56-1.25 1.25v11c0 .69.56 1.25 1.25 1.25h3c.69 0 1.25-.56 1.25-1.25v-2.75h2.75c.69 0 1.25-.56 1.25-1.25v-2.75h2.75c.69 0 1.25-.56 1.25-1.25v-3c0-.69-.56-1.25-1.25-1.25h-11Zm4.25 8h2.5v-2.5h-2.5v2.5Zm-4 1.5v2.5h2.5v-2.5h-2.5Zm0-1.5h2.5v-2.5h-2.5v2.5Zm6.5-4h-2.5v-2.5h2.5v2.5Zm-6.5 0h2.5v-2.5h-2.5v2.5Zm10.5 0h-2.5v-2.5h2.5v2.5Z" fill="#5C5F62"/></svg>
